; generated by PrusaSlicer 2.3.3+x64 on 2022-06-23 at 06:42:26 UTC

; 

; external perimeters extrusion width = 0.45mm
; perimeters extrusion width = 0.45mm
; infill extrusion width = 0.45mm
; solid infill extrusion width = 0.45mm
; top infill extrusion width = 0.45mm
; first layer extrusion width = 0.42mm

M201 X500 Y500 Z100 E5000 ; sets maximum accelerations, mm/sec^2
M203 X500 Y500 Z10 E60 ; sets maximum feedrates, mm/sec
M204 P500 R1000 T500 ; sets acceleration (P, T) and retract acceleration (R), mm/sec^2
M205 X8.00 Y8.00 Z0.40 E5.00 ; sets the jerk limits, mm/sec
M205 S0 T0 ; sets the minimum extruding and travel feed rate, mm/sec
M107
;TYPE:Custom
G90 ; use absolute coordinates
M83 ; extruder relative mode
M140 S60 ; set final bed temp
M104 S150 ; set temporary nozzle temp to prevent oozing during homing
G4 S10 ; allow partial nozzle warmup
G28 ; home all axis
G1 Z50 F240
G1 X2 Y10 F3000
M104 S215 ; set final nozzle temp
M190 S60 ; wait for bed temp to stabilize
M109 S215 ; wait for nozzle temp to stabilize
G1 Z0.28 F240
G92 E0
G1 Y140 E10 F1500 ; prime the nozzle
G1 X2.3 F5000
G92 E0
G1 Y10 E10 F1200 ; prime the nozzle
G92 E0
G21 ; set units to millimeters
G90 ; use absolute coordinates
M83 ; use relative distances for extrusion
; Filament gcode
;LAYER_CHANGE
;Z:0.2
;HEIGHT:0.2
;BEFORE_LAYER_CHANGE
G92 E0
;0.2


G1 E-5.00000 F3600.000
G1 Z0.200 F9000.000
;AFTER_LAYER_CHANGE
;0.2
G1 X39.723 Y40.552
G1 E5.00000 F2400.000
M204 S500
;TYPE:Skirt
;WIDTH:0.42
G1 F1200.000
G1 X40.188 Y39.007 E0.05060
G1 X40.570 Y38.237 E0.02695
G1 X41.237 Y37.260 E0.03710
G1 X51.361 Y25.295 E0.49143
G1 X52.369 Y24.369 E0.04293
G1 X53.173 Y23.861 E0.02980
G1 X86.110 Y6.210 E1.17166
G1 X87.165 Y5.795 E0.03557
G1 X88.220 Y5.659 E0.03333
G1 X163.755 Y5.659 E2.36836
G1 X164.966 Y5.828 E0.03831
G1 X165.935 Y6.228 E0.03289
G1 X179.147 Y13.928 E0.47946
G1 X179.795 Y14.417 E0.02545
G1 X180.304 Y14.967 E0.02350
G1 X180.858 Y15.891 E0.03378
G1 X190.789 Y38.950 E0.78721
G1 X191.195 Y40.164 E0.04013
G1 X191.401 Y41.883 E0.05428
G1 X191.401 Y123.527 E2.55989
G1 X191.276 Y124.858 E0.04190
G1 X190.812 Y126.399 E0.05045
G1 X174.691 Y156.562 E1.07235
G1 X173.749 Y157.733 E0.04714
G1 X155.391 Y174.998 E0.79015
G1 X154.436 Y175.737 E0.03786
G1 X102.526 Y212.150 E1.98811
G1 X80.967 Y224.628 E0.78102
G1 X79.619 Y225.105 E0.04484
G1 X77.855 Y225.340 E0.05582
G1 X76.401 Y225.225 E0.04572
G1 X74.999 Y224.834 E0.04565
G1 X73.904 Y224.313 E0.03802
G1 X53.026 Y212.195 E0.75689
G1 X52.182 Y211.610 E0.03220
G1 X51.430 Y210.888 E0.03268
G1 X41.221 Y199.732 E0.47416
G1 X40.757 Y199.084 E0.02498
G1 X40.244 Y198.134 E0.03385
G1 X39.969 Y197.421 E0.02397
G1 X39.713 Y196.406 E0.03283
G1 X39.599 Y195.124 E0.04034
G1 X39.599 Y41.883 E4.80476
G1 X39.718 Y40.612 E0.04002
G1 E-3.50000 F3600.000
;WIPE_START
G1 F7200.000
G1 X40.188 Y39.007 E-0.79445
G1 X40.570 Y38.237 E-0.40821
G1 X40.834 Y37.851 E-0.22234
;WIPE_END
G1 E-0.07500 F3600.000
G1 X173.415 Y36.264 F9000.000
G1 E5.00000 F2400.000
;TYPE:Perimeter
G1 F1200.000
G1 X173.415 Y50.534 E0.44741
G1 X167.894 Y53.795 E0.20106
G1 X167.894 Y65.836 E0.37753
G1 X156.764 Y72.322 E0.40392
G1 X156.233 Y72.601 E0.01881
G1 X155.665 Y72.838 E0.01928
G1 X155.080 Y73.025 E0.01927
G1 X154.480 Y73.159 E0.01927
G1 X153.871 Y73.240 E0.01926
G1 X153.256 Y73.267 E0.01930
G1 X152.642 Y73.240 E0.01926
G1 X152.033 Y73.159 E0.01926
G1 X151.434 Y73.025 E0.01927
G1 X150.848 Y72.838 E0.01927
G1 X150.281 Y72.601 E0.01928
G1 X149.749 Y72.322 E0.01881
G1 X138.619 Y65.836 E0.40392
G1 X138.619 Y53.795 E0.37753
G1 X133.098 Y50.534 E0.20106
G1 X133.098 Y36.264 E0.44741
G1 X140.258 Y32.090 E0.25986
G1 X140.716 Y31.916 E0.01536
G1 X141.151 Y31.782 E0.01429
G1 X141.595 Y31.678 E0.01429
G1 X142.044 Y31.603 E0.01428
G1 X142.497 Y31.558 E0.01428
G1 X142.953 Y31.543 E0.01428
G1 X143.408 Y31.558 E0.01428
G1 X143.861 Y31.603 E0.01428
G1 X144.310 Y31.678 E0.01428
G1 X144.754 Y31.782 E0.01429
G1 X145.190 Y31.916 E0.01429
G1 X145.649 Y32.090 E0.01539
G1 X153.257 Y36.554 E0.27658
G1 X160.865 Y32.090 E0.27658
G1 X161.324 Y31.916 E0.01539
G1 X161.759 Y31.782 E0.01429
G1 X162.203 Y31.678 E0.01429
G1 X162.653 Y31.603 E0.01431
G1 X163.124 Y31.557 E0.01484
G1 X163.561 Y31.543 E0.01369
G1 X164.016 Y31.558 E0.01428
G1 X164.469 Y31.603 E0.01428
G1 X164.918 Y31.678 E0.01428
G1 X165.362 Y31.782 E0.01429
G1 X165.798 Y31.916 E0.01429
G1 X166.256 Y32.090 E0.01536
G1 X173.363 Y36.234 E0.25798
G1 X173.038 Y36.481 F9000.000
;TYPE:External perimeter
G1 F1200.000
G1 X173.038 Y50.318 E0.43387
G1 X167.517 Y53.580 E0.20106
G1 X167.517 Y65.619 E0.37748
G1 X156.581 Y71.992 E0.39686
G1 X156.072 Y72.259 E0.01803
G1 X155.535 Y72.484 E0.01824
G1 X154.981 Y72.660 E0.01823
G1 X154.414 Y72.787 E0.01823
G1 X153.838 Y72.864 E0.01822
G1 X153.256 Y72.889 E0.01826
G1 X152.675 Y72.864 E0.01822
G1 X152.099 Y72.787 E0.01822
G1 X151.532 Y72.660 E0.01823
G1 X150.978 Y72.484 E0.01823
G1 X150.441 Y72.259 E0.01824
G1 X149.932 Y71.992 E0.01803
G1 X138.996 Y65.619 E0.39686
G1 X138.996 Y53.580 E0.37748
G1 X133.475 Y50.318 E0.20106
G1 X133.475 Y36.481 E0.43387
G1 X140.421 Y32.431 E0.25209
G1 X140.838 Y32.272 E0.01399
G1 X141.250 Y32.146 E0.01351
G1 X141.669 Y32.048 E0.01350
G1 X142.094 Y31.977 E0.01350
G1 X142.522 Y31.934 E0.01350
G1 X142.953 Y31.920 E0.01350
G1 X143.383 Y31.934 E0.01350
G1 X143.811 Y31.977 E0.01350
G1 X144.236 Y32.048 E0.01350
G1 X144.655 Y32.146 E0.01350
G1 X145.067 Y32.272 E0.01351
G1 X145.485 Y32.431 E0.01401
G1 X153.257 Y36.992 E0.28253
G1 X161.028 Y32.431 E0.28253
G1 X161.446 Y32.272 E0.01401
G1 X161.858 Y32.146 E0.01351
G1 X162.277 Y32.048 E0.01350
G1 X162.702 Y31.977 E0.01351
G1 X163.148 Y31.934 E0.01406
G1 X163.561 Y31.920 E0.01293
G1 X163.991 Y31.934 E0.01350
G1 X164.419 Y31.977 E0.01350
G1 X164.844 Y32.048 E0.01350
G1 X165.263 Y32.146 E0.01350
G1 X165.675 Y32.272 E0.01351
G1 X166.093 Y32.431 E0.01399
G1 X172.986 Y36.451 E0.25021
G1 X173.432 Y36.550 F9000.000
G1 E-3.50000 F3600.000
;WIPE_START
G1 F7200.000
G1 X172.997 Y39.451 E-1.42500
;WIPE_END
G1 E-0.07500 F3600.000
G1 X177.167 Y39.194 F9000.000
G1 E5.00000 F2400.000
;TYPE:Perimeter
G1 F1200.000
G1 X177.856 Y38.797 E0.02493
G1 X182.871 Y41.718 E0.18198
G1 X183.160 Y41.980 E0.01222
G1 X183.474 Y42.414 E0.01680
G1 X183.675 Y42.924 E0.01719
G1 X183.738 Y43.429 E0.01597
G1 X183.738 Y50.066 E0.20810
G1 X183.675 Y50.572 E0.01597
G1 X183.474 Y51.082 E0.01719
G1 X183.153 Y51.526 E0.01719
G1 X182.751 Y51.860 E0.01639
G1 X177.855 Y54.698 E0.17742
G1 X177.167 Y54.301 E0.02490
G1 X177.167 Y39.254 E0.47179
G1 X177.544 Y39.412 F9000.000
;TYPE:External perimeter
G1 F1200.000
G1 X177.855 Y39.233 E0.01124
G1 X182.647 Y42.024 E0.17390
G1 X182.878 Y42.233 E0.00974
G1 X183.141 Y42.596 E0.01406
G1 X183.307 Y43.018 E0.01421
G1 X183.361 Y43.453 E0.01374
G1 X183.361 Y50.043 E0.20662
G1 X183.307 Y50.477 E0.01374
G1 X183.141 Y50.899 E0.01421
G1 X182.875 Y51.266 E0.01420
G1 X182.534 Y51.550 E0.01390
G1 X177.855 Y54.262 E0.16959
G1 X177.544 Y54.083 E0.01123
G1 X177.544 Y39.472 E0.45812
G1 X177.419 Y39.076 F9000.000
G1 E-3.50000 F3600.000
;WIPE_START
G1 F7200.000
G1 X177.855 Y39.233 E-0.18621
G1 X180.108 Y40.546 E-1.23879
;WIPE_END
G1 E-0.07500 F3600.000
G1 X128.668 Y38.798 F9000.000
G1 E5.00000 F2400.000
;TYPE:Perimeter
G1 F1200.000
G1 X129.357 Y39.194 E0.02490
G1 X129.357 Y54.301 E0.47367
G1 X128.668 Y54.698 E0.02493
G1 X123.642 Y51.771 E0.18237
G1 X123.260 Y51.396 E0.01677
G1 X123.045 Y51.070 E0.01224
G1 X122.849 Y50.572 E0.01680
G1 X122.785 Y50.066 E0.01597
G1 X122.785 Y43.429 E0.20810
G1 X122.847 Y42.936 E0.01558
G1 X122.971 Y42.579 E0.01185
G1 X123.146 Y42.258 E0.01146
G1 X123.380 Y41.962 E0.01185
G1 X123.773 Y41.636 E0.01600
G1 X128.617 Y38.828 E0.17554
G1 X128.669 Y39.233 F9000.000
;TYPE:External perimeter
G1 F1200.000
G1 X128.979 Y39.412 E0.01123
G1 X128.979 Y54.083 E0.46000
G1 X128.669 Y54.262 E0.01124
G1 X123.872 Y51.469 E0.17404
G1 X123.553 Y51.155 E0.01404
G1 X123.381 Y50.895 E0.00976
G1 X123.217 Y50.477 E0.01407
G1 X123.162 Y50.043 E0.01374
G1 X123.162 Y43.453 E0.20662
G1 X123.216 Y43.022 E0.01360
G1 X123.317 Y42.732 E0.00962
G1 X123.462 Y42.467 E0.00948
G1 X123.652 Y42.226 E0.00962
G1 X123.990 Y41.946 E0.01376
G1 X128.617 Y39.263 E0.16771
G1 X128.898 Y38.958 F9000.000
G1 E-3.50000 F3600.000
;WIPE_START
G1 F7200.000
G1 X128.979 Y39.412 E-0.18607
G1 X128.979 Y42.020 E-1.23893
;WIPE_END
G1 E-0.07500 F3600.000
G1 X177.167 Y34.031 F9000.000
G1 E5.00000 F2400.000
;TYPE:Perimeter
G1 F1200.000
G1 X185.817 Y39.114 E0.31458
G1 X186.043 Y39.272 E0.00865
G1 X186.449 Y39.639 E0.01716
G1 X186.789 Y40.070 E0.01720
G1 X186.931 Y40.305 E0.00862
G1 X187.154 Y40.809 E0.01725
G1 X187.233 Y41.073 E0.00864
G1 X187.324 Y41.616 E0.01729
G1 X187.336 Y41.906 E0.00910
G1 X187.336 Y51.893 E0.31313
G1 X187.324 Y52.183 E0.00910
G1 X187.233 Y52.727 E0.01729
G1 X187.154 Y52.991 E0.00864
G1 X186.931 Y53.494 E0.01725
G1 X186.789 Y53.730 E0.00862
G1 X186.449 Y54.161 E0.01720
G1 X186.043 Y54.528 E0.01716
G1 X185.817 Y54.686 E0.00865
G1 X177.167 Y59.769 E0.31458
G1 X177.167 Y63.390 E0.11353
G1 X177.114 Y63.820 E0.01360
G1 X176.994 Y64.223 E0.01318
G1 X176.809 Y64.599 E0.01316
G1 X176.557 Y64.949 E0.01352
G1 X176.431 Y65.084 E0.00579
G1 X176.101 Y65.359 E0.01347
G1 X155.081 Y77.572 E0.76224
G1 X154.788 Y77.725 E0.01037
G1 X154.496 Y77.847 E0.00989
G1 X154.196 Y77.942 E0.00988
G1 X153.889 Y78.010 E0.00988
G1 X153.576 Y78.052 E0.00987
G1 X153.262 Y78.066 E0.00987
G1 X152.947 Y78.052 E0.00987
G1 X152.635 Y78.010 E0.00987
G1 X152.328 Y77.942 E0.00988
G1 X152.027 Y77.847 E0.00988
G1 X151.736 Y77.725 E0.00989
G1 X151.443 Y77.572 E0.01037
G1 X130.412 Y65.353 E0.76263
G1 X130.266 Y65.241 E0.00577
G1 X129.960 Y64.939 E0.01348
G1 X129.715 Y64.599 E0.01313
G1 X129.530 Y64.223 E0.01316
G1 X129.410 Y63.820 E0.01318
G1 X129.357 Y63.390 E0.01360
G1 X129.357 Y59.769 E0.11353
G1 X120.707 Y54.686 E0.31458
G1 X120.270 Y54.353 E0.01722
G1 X119.896 Y53.953 E0.01718
G1 X119.593 Y53.494 E0.01722
G1 X119.370 Y52.991 E0.01725
G1 X119.234 Y52.457 E0.01728
G1 X119.187 Y51.893 E0.01774
G1 X119.187 Y41.906 E0.31313
G1 X119.234 Y41.342 E0.01774
G1 X119.291 Y41.073 E0.00865
G1 X119.471 Y40.552 E0.01727
G1 X119.735 Y40.070 E0.01724
G1 X120.074 Y39.639 E0.01720
G1 X120.480 Y39.272 E0.01716
G1 X120.707 Y39.114 E0.00865
G1 X129.357 Y34.031 E0.31458
G1 X129.357 Y29.560 E0.14019
G1 X129.398 Y29.103 E0.01437
G1 X129.513 Y28.690 E0.01344
G1 X129.701 Y28.306 E0.01342
G1 X129.954 Y27.962 E0.01339
G1 X130.265 Y27.671 E0.01335
G1 X130.652 Y27.424 E0.01439
G1 X163.640 Y9.750 E1.17342
G1 X163.823 Y9.731 E0.00578
G1 X163.992 Y9.808 E0.00583
G1 X164.102 Y9.965 E0.00599
G1 X164.128 Y10.123 E0.00503
G1 X164.128 Y21.681 E0.36238
G1 X164.154 Y21.966 E0.00899
G1 X164.240 Y22.273 E0.00998
G1 X164.380 Y22.559 E0.00998
G1 X164.570 Y22.814 E0.00998
G1 X164.803 Y23.031 E0.00999
G1 X165.072 Y23.201 E0.00999
G1 X165.368 Y23.319 E0.00999
G1 X165.681 Y23.380 E0.00999
G1 X166.000 Y23.383 E0.00999
G1 X166.314 Y23.327 E0.00999
G1 X166.606 Y23.217 E0.00980
G1 X176.644 Y17.395 E0.36383
G1 X176.785 Y17.342 E0.00474
G1 X176.904 Y17.345 E0.00373
G1 X177.063 Y17.429 E0.00563
G1 X177.135 Y17.529 E0.00388
G1 X177.168 Y17.653 E0.00402
G1 X177.167 Y33.971 E0.51164
G1 X177.544 Y33.815 F9000.000
;TYPE:External perimeter
G1 F1200.000
G1 X186.021 Y38.796 E0.30827
G1 X186.272 Y38.972 E0.00960
G1 X186.507 Y39.167 E0.00958
G1 X186.725 Y39.381 E0.00959
G1 X186.924 Y39.613 E0.00960
G1 X187.104 Y39.862 E0.00961
G1 X187.262 Y40.124 E0.00961
G1 X187.398 Y40.399 E0.00962
G1 X187.510 Y40.685 E0.00963
G1 X187.599 Y40.979 E0.00963
G1 X187.662 Y41.280 E0.00964
G1 X187.701 Y41.585 E0.00964
G1 X187.714 Y41.898 E0.00984
G1 X187.714 Y51.901 E0.31363
G1 X187.701 Y52.215 E0.00984
G1 X187.662 Y52.520 E0.00964
G1 X187.599 Y52.820 E0.00964
G1 X187.510 Y53.115 E0.00963
G1 X187.398 Y53.400 E0.00963
G1 X187.262 Y53.675 E0.00962
G1 X187.104 Y53.938 E0.00961
G1 X186.924 Y54.186 E0.00960
G1 X186.725 Y54.418 E0.00960
G1 X186.507 Y54.633 E0.00959
G1 X186.272 Y54.828 E0.00958
G1 X186.021 Y55.003 E0.00960
G1 X177.544 Y59.985 E0.30827
G1 X177.544 Y63.413 E0.10749
G1 X177.484 Y63.898 E0.01532
G1 X177.346 Y64.361 E0.01516
G1 X177.133 Y64.794 E0.01514
G1 X176.849 Y65.189 E0.01525
G1 X176.691 Y65.359 E0.00728
G1 X176.318 Y65.669 E0.01521
G1 X155.263 Y77.902 E0.76350
G1 X154.948 Y78.067 E0.01114
G1 X154.626 Y78.201 E0.01093
G1 X154.294 Y78.306 E0.01092
G1 X153.954 Y78.382 E0.01092
G1 X153.609 Y78.428 E0.01091
G1 X153.262 Y78.443 E0.01091
G1 X152.914 Y78.428 E0.01091
G1 X152.569 Y78.382 E0.01091
G1 X152.229 Y78.306 E0.01092
G1 X151.897 Y78.201 E0.01092
G1 X151.576 Y78.067 E0.01093
G1 X151.261 Y77.902 E0.01114
G1 X130.202 Y65.667 E0.76364
G1 X130.018 Y65.526 E0.00726
G1 X129.672 Y65.185 E0.01523
G1 X129.390 Y64.794 E0.01511
G1 X129.177 Y64.361 E0.01514
G1 X129.039 Y63.898 E0.01516
G1 X128.979 Y63.413 E0.01532
G1 X128.979 Y59.985 E0.10749
G1 X120.503 Y55.003 E0.30827
G1 X120.252 Y54.828 E0.00960
G1 X120.017 Y54.633 E0.00958
G1 X119.799 Y54.418 E0.00959
G1 X119.599 Y54.186 E0.00960
G1 X119.420 Y53.938 E0.00961
G1 X119.262 Y53.675 E0.00961
G1 X119.126 Y53.400 E0.00962
G1 X119.013 Y53.115 E0.00963
G1 X118.925 Y52.820 E0.00963
G1 X118.861 Y52.520 E0.00964
G1 X118.823 Y52.215 E0.00964
G1 X118.810 Y51.901 E0.00984
G1 X118.810 Y41.898 E0.31363
G1 X118.823 Y41.585 E0.00984
G1 X118.861 Y41.280 E0.00964
G1 X118.925 Y40.979 E0.00964
G1 X119.013 Y40.685 E0.00963
G1 X119.126 Y40.399 E0.00963
G1 X119.262 Y40.124 E0.00962
G1 X119.420 Y39.862 E0.00961
G1 X119.599 Y39.613 E0.00960
G1 X119.799 Y39.381 E0.00960
G1 X120.017 Y39.167 E0.00959
G1 X120.252 Y38.972 E0.00958
G1 X120.503 Y38.796 E0.00960
G1 X128.979 Y33.815 E0.30827
G1 X128.979 Y29.543 E0.13396
G1 X129.026 Y29.035 E0.01598
G1 X129.159 Y28.556 E0.01560
G1 X129.377 Y28.109 E0.01558
G1 X129.671 Y27.710 E0.01555
G1 X130.033 Y27.372 E0.01552
G1 X130.461 Y27.098 E0.01593
G1 X163.503 Y9.397 E1.17531
G1 X163.627 Y9.361 E0.00406
G1 X163.884 Y9.357 E0.00807
G1 X164.128 Y9.443 E0.00809
G1 X164.327 Y9.609 E0.00813
G1 X164.402 Y9.716 E0.00410
G1 X164.492 Y9.962 E0.00820
G1 X164.505 Y10.107 E0.00455
G1 X164.505 Y21.664 E0.36236
G1 X164.526 Y21.898 E0.00737
G1 X164.593 Y22.138 E0.00781
G1 X164.703 Y22.361 E0.00781
G1 X164.852 Y22.561 E0.00781
G1 X165.034 Y22.731 E0.00781
G1 X165.244 Y22.864 E0.00780
G1 X165.475 Y22.956 E0.00780
G1 X165.719 Y23.004 E0.00780
G1 X165.968 Y23.006 E0.00780
G1 X166.213 Y22.962 E0.00780
G1 X166.443 Y22.875 E0.00773
G1 X176.469 Y17.060 E0.36340
G1 X176.600 Y17.000 E0.00452
G1 X176.855 Y16.959 E0.00808
G1 X177.107 Y17.013 E0.00809
G1 X177.324 Y17.155 E0.00813
G1 X177.477 Y17.366 E0.00818
G1 X177.546 Y17.620 E0.00825
G1 X177.544 Y33.755 E0.50590
G1 X177.406 Y34.190 F9000.000
G1 E-3.50000 F3600.000
;WIPE_START
G1 F7200.000
G1 X180.123 Y35.289 E-1.42500
;WIPE_END
G1 E-0.07500 F3600.000
G1 X164.014 Y10.682 F9000.000
G1 E5.00000 F2400.000
;TYPE:Solid infill
;WIDTH:0.421959
G1 F1200.000
G1 X163.483 Y10.151 E0.02367
G1 X163.134 Y10.338 E0.01248
G1 X163.845 Y11.048 E0.03166
G1 X163.845 Y11.584 E0.01689
G1 X162.785 Y10.525 E0.04722
G1 X162.436 Y10.712 E0.01248
G1 X163.845 Y12.120 E0.06277
G1 X163.845 Y12.656 E0.01689
G1 X162.087 Y10.899 E0.07833
G1 X161.738 Y11.086 E0.01248
G1 X163.845 Y13.192 E0.09389
G1 X163.845 Y13.728 E0.01689
G1 X161.389 Y11.273 E0.10944
G1 X161.040 Y11.460 E0.01248
G1 X163.845 Y14.264 E0.12500
G1 X163.845 Y14.800 E0.01689
G1 X160.691 Y11.647 E0.14055
G1 X160.342 Y11.834 E0.01248
G1 X163.845 Y15.336 E0.15611
G1 X163.845 Y15.872 E0.01689
G1 X159.993 Y12.021 E0.17167
G1 X159.644 Y12.208 E0.01248
G1 X163.845 Y16.408 E0.18722
G1 X163.845 Y16.944 E0.01689
G1 X159.295 Y12.395 E0.20278
G1 X158.946 Y12.582 E0.01248
G1 X163.845 Y17.480 E0.21833
G1 X163.845 Y18.016 E0.01689
G1 X158.597 Y12.769 E0.23389
G1 X158.248 Y12.956 E0.01248
G1 X163.845 Y18.552 E0.24945
G1 X163.845 Y19.089 E0.01689
G1 X157.899 Y13.143 E0.26500
G1 X157.550 Y13.330 E0.01248
G1 X163.845 Y19.625 E0.28056
G1 X163.845 Y20.161 E0.01689
G1 X157.201 Y13.517 E0.29612
G1 X156.852 Y13.704 E0.01248
G1 X163.845 Y20.697 E0.31167
G1 X163.845 Y21.233 E0.01689
