; generated by PrusaSlicer 2.3.3+x64 on 2022-07-10 at 02:43:07 UTC

; 

; external perimeters extrusion width = 0.45mm
; perimeters extrusion width = 0.45mm
; infill extrusion width = 0.45mm
; solid infill extrusion width = 0.45mm
; top infill extrusion width = 0.45mm
; support material extrusion width = 0.38mm
; first layer extrusion width = 0.42mm

M201 X500 Y500 Z100 E5000 ; sets maximum accelerations, mm/sec^2
M203 X500 Y500 Z10 E60 ; sets maximum feedrates, mm/sec
M204 P500 R1000 T500 ; sets acceleration (P, T) and retract acceleration (R), mm/sec^2
M205 X8.00 Y8.00 Z0.40 E5.00 ; sets the jerk limits, mm/sec
M205 S0 T0 ; sets the minimum extruding and travel feed rate, mm/sec
M107
;TYPE:Custom
G90 ; use absolute coordinates
M83 ; extruder relative mode
M140 S60 ; set final bed temp
M104 S150 ; set temporary nozzle temp to prevent oozing during homing
G4 S10 ; allow partial nozzle warmup
G28 ; home all axis
G1 Z50 F240
G1 X2 Y10 F3000
M104 S215 ; set final nozzle temp
M190 S60 ; wait for bed temp to stabilize
M109 S215 ; wait for nozzle temp to stabilize
G1 Z0.28 F240
G92 E0
G1 Y140 E10 F1500 ; prime the nozzle
G1 X2.3 F5000
G92 E0
G1 Y10 E10 F1200 ; prime the nozzle
G92 E0
G21 ; set units to millimeters
G90 ; use absolute coordinates
M83 ; use relative distances for extrusion
; Filament gcode
;LAYER_CHANGE
;Z:0.2
;HEIGHT:0.2
;BEFORE_LAYER_CHANGE
G92 E0
;0.2


G1 E-5.00000 F3600.000
G1 Z0.200 F9000.000
;AFTER_LAYER_CHANGE
;0.2
G1 X11.895 Y14.858
G1 E5.00000 F2400.000
M204 S500
;TYPE:Skirt
;WIDTH:0.42
G1 F1200.000
G1 X12.783 Y14.399 E0.03134
G1 X13.767 Y14.220 E0.03134
G1 X82.876 Y14.170 E2.16686
G1 X83.525 Y14.234 E0.02047
G1 X84.146 Y14.420 E0.02032
G1 X84.720 Y14.721 E0.02032
G1 X85.226 Y15.127 E0.02032
G1 X85.645 Y15.621 E0.02032
G1 X85.962 Y16.187 E0.02032
G1 X86.166 Y16.807 E0.02047
G1 X86.247 Y17.450 E0.02032
G1 X86.182 Y121.927 E3.27580
G1 X86.129 Y122.514 E0.01848
G1 X85.975 Y123.083 E0.01848
G1 X85.420 Y124.056 E0.03514
G1 X38.564 Y181.136 E2.31544
G1 X38.096 Y181.493 E0.01848
G1 X37.572 Y181.763 E0.01848
G1 X37.009 Y181.939 E0.01848
G1 X36.424 Y182.013 E0.01848
G1 X22.572 Y182.016 E0.43433
G1 X21.457 Y181.810 E0.03556
G1 X20.682 Y181.406 E0.02740
G1 X20.037 Y180.817 E0.02740
G1 X19.562 Y180.078 E0.02754
G1 X19.295 Y179.246 E0.02740
G1 X11.316 Y132.088 E1.49961
G1 X10.535 Y122.218 E0.31044
G1 X10.496 Y17.590 E3.28053
G1 X10.548 Y17.003 E0.01848
G1 X10.702 Y16.434 E0.01848
G1 X11.180 Y15.557 E0.03134
G1 X11.852 Y14.900 E0.02946
G1 E-3.50000 F3600.000
;WIPE_START
G1 F7200.000
G1 X12.783 Y14.399 E-0.50216
G1 X13.767 Y14.220 E-0.47484
G1 X14.710 Y14.219 E-0.44800
;WIPE_END
G1 E-0.07500 F3600.000
G1 X14.686 Y18.282 F9000.000
G1 E5.00000 F2400.000
;TYPE:Perimeter
G1 F1200.000
G1 X42.659 Y18.282 E0.87706
G1 X34.929 Y64.015 E1.45426
G1 X22.417 Y64.015 E0.39229
G1 X14.696 Y18.341 E1.45239
G1 X14.240 Y17.905 F9000.000
;TYPE:External perimeter
G1 F1200.000
G1 X43.106 Y17.905 E0.90506
G1 X35.247 Y64.392 E1.47825
G1 X22.099 Y64.392 E0.41227
G1 X14.250 Y17.964 E1.47637
G1 X14.611 Y18.054 F9000.000
G1 E-3.50000 F3600.000
;WIPE_START
G1 F7200.000
G1 X17.250 Y17.958 E-1.42500
;WIPE_END
G1 E-0.07500 F3600.000
G1 X42.415 Y19.044 F9000.000
G1 E5.00000 F2400.000
;TYPE:Solid infill
;WIDTH:0.420012
G1 F1200.000
G1 X41.936 Y18.565 E0.02124
G1 X41.402 Y18.565 E0.01672
G1 X42.190 Y19.353 E0.03494
G1 X42.113 Y19.809 E0.01451
G1 X40.869 Y18.565 E0.05517
G1 X40.336 Y18.565 E0.01672
G1 X42.036 Y20.265 E0.07540
G1 X41.959 Y20.721 E0.01451
G1 X39.802 Y18.565 E0.09562
G1 X39.269 Y18.565 E0.01672
G1 X41.882 Y21.177 E0.11585
G1 X41.805 Y21.634 E0.01451
G1 X38.736 Y18.565 E0.13608
G1 X38.203 Y18.565 E0.01672
G1 X41.728 Y22.090 E0.15631
G1 X41.651 Y22.546 E0.01451
G1 X37.669 Y18.565 E0.17654
G1 X37.136 Y18.565 E0.01672
G1 X41.573 Y23.002 E0.19677
G1 X41.496 Y23.458 E0.01451
G1 X36.603 Y18.565 E0.21700
G1 X36.069 Y18.565 E0.01672
G1 X41.419 Y23.915 E0.23723
G1 X41.342 Y24.371 E0.01451
G1 X35.536 Y18.565 E0.25745
G1 X35.003 Y18.565 E0.01672
G1 X41.265 Y24.827 E0.27768
G1 X41.188 Y25.283 E0.01451
G1 X34.470 Y18.565 E0.29791
G1 X33.936 Y18.565 E0.01672
G1 X41.111 Y25.739 E0.31814
G1 X41.034 Y26.196 E0.01451
G1 X33.403 Y18.565 E0.33837
G1 X32.870 Y18.565 E0.01672
G1 X40.957 Y26.652 E0.35860
G1 X40.880 Y27.108 E0.01451
G1 X32.336 Y18.565 E0.37883
G1 X31.803 Y18.565 E0.01672
G1 X40.802 Y27.564 E0.39906
G1 X40.725 Y28.020 E0.01451
G1 X31.270 Y18.565 E0.41929
G1 X30.737 Y18.565 E0.01672
G1 X40.648 Y28.476 E0.43951
G1 X40.571 Y28.933 E0.01451
G1 X30.203 Y18.565 E0.45974
G1 X29.670 Y18.565 E0.01672
G1 X40.494 Y29.389 E0.47997
G1 X40.417 Y29.845 E0.01451
G1 X29.137 Y18.565 E0.50020
G1 X28.603 Y18.565 E0.01672
G1 X40.340 Y30.301 E0.52043
G1 X40.263 Y30.757 E0.01451
G1 X28.070 Y18.565 E0.54066
G1 X27.537 Y18.565 E0.01672
G1 X40.186 Y31.214 E0.56089
G1 X40.109 Y31.670 E0.01451
G1 X27.004 Y18.565 E0.58112
G1 X26.470 Y18.565 E0.01672
G1 X40.031 Y32.126 E0.60135
G1 X39.954 Y32.582 E0.01451
G1 X25.937 Y18.565 E0.62157
G1 X25.404 Y18.565 E0.01672
G1 X39.877 Y33.038 E0.64180
G1 X39.800 Y33.495 E0.01451
G1 X24.870 Y18.565 E0.66203
G1 X24.337 Y18.565 E0.01672
G1 X39.723 Y33.951 E0.68226
G1 X39.646 Y34.407 E0.01451
G1 X23.804 Y18.565 E0.70249
G1 X23.271 Y18.565 E0.01672
G1 X39.569 Y34.863 E0.72272
G1 X39.492 Y35.319 E0.01451
G1 X22.737 Y18.565 E0.74295
G1 X22.204 Y18.565 E0.01672
G1 X39.415 Y35.775 E0.76318
G1 X39.338 Y36.232 E0.01451
G1 X21.671 Y18.565 E0.78340
G1 X21.137 Y18.565 E0.01672
G1 X39.260 Y36.688 E0.80363
G1 X39.183 Y37.144 E0.01451
G1 X20.604 Y18.565 E0.82386
G1 X20.071 Y18.565 E0.01672
G1 X39.106 Y37.600 E0.84409
G1 X39.029 Y38.056 E0.01451
G1 X19.538 Y18.565 E0.86432
G1 X19.004 Y18.565 E0.01672
G1 X38.952 Y38.513 E0.88455
G1 X38.875 Y38.969 E0.01451
G1 X18.471 Y18.565 E0.90478
G1 X17.938 Y18.565 E0.01672
G1 X38.798 Y39.425 E0.92501
G1 X38.721 Y39.881 E0.01451
G1 X17.404 Y18.565 E0.94524
G1 X16.871 Y18.565 E0.01672
G1 X38.644 Y40.337 E0.96546
G1 X38.567 Y40.794 E0.01451
G1 X16.338 Y18.565 E0.98569
G1 X15.804 Y18.565 E0.01672
G1 X38.489 Y41.250 E1.00592
G1 X38.412 Y41.706 E0.01451
G1 X15.271 Y18.565 E1.02615
G1 X15.021 Y18.565 E0.00785
G1 X15.078 Y18.905 E0.01083
G1 X38.335 Y42.162 E1.03128
G1 X38.258 Y42.618 E0.01451
G1 X15.187 Y19.547 E1.02305
G1 X15.295 Y20.189 E0.02041
G1 X38.181 Y43.075 E1.01482
G1 X38.104 Y43.531 E0.01451
G1 X15.404 Y20.831 E1.00659
G1 X15.512 Y21.472 E0.02041
G1 X38.027 Y43.987 E0.99836
G1 X37.950 Y44.443 E0.01451
G1 X15.621 Y22.114 E0.99013
G1 X15.729 Y22.756 E0.02041
G1 X37.873 Y44.899 E0.98191
G1 X37.796 Y45.355 E0.01451
G1 X15.838 Y23.398 E0.97368
G1 X15.946 Y24.039 E0.02041
G1 X37.718 Y45.812 E0.96545
G1 X37.641 Y46.268 E0.01451
G1 X16.055 Y24.681 E0.95722
G1 X16.163 Y25.323 E0.02041
G1 X37.564 Y46.724 E0.94899
G1 X37.487 Y47.180 E0.01451
G1 X16.272 Y25.965 E0.94076
G1 X16.380 Y26.607 E0.02041
G1 X37.410 Y47.636 E0.93253
G1 X37.333 Y48.093 E0.01451
G1 X16.489 Y27.248 E0.92430
G1 X16.597 Y27.890 E0.02041
G1 X37.256 Y48.549 E0.91607
G1 X37.179 Y49.005 E0.01451
G1 X16.706 Y28.532 E0.90784
G1 X16.814 Y29.174 E0.02041
G1 X37.102 Y49.461 E0.89961
G1 X37.025 Y49.917 E0.01451
G1 X16.923 Y29.816 E0.89138
G1 X17.031 Y30.457 E0.02041
G1 X36.947 Y50.374 E0.88315
G1 X36.870 Y50.830 E0.01451
G1 X17.140 Y31.099 E0.87492
G1 X17.248 Y31.741 E0.02041
G1 X36.793 Y51.286 E0.86669
G1 X36.716 Y51.742 E0.01451
G1 X17.357 Y32.383 E0.85846
G1 X17.465 Y33.024 E0.02041
G1 X36.639 Y52.198 E0.85023
G1 X36.562 Y52.654 E0.01451
G1 X17.574 Y33.666 E0.84200
G1 X17.682 Y34.308 E0.02041
G1 X36.485 Y53.111 E0.83377
G1 X36.408 Y53.567 E0.01451
G1 X17.791 Y34.950 E0.82554
G1 X17.899 Y35.592 E0.02041
G1 X36.331 Y54.023 E0.81731
G1 X36.254 Y54.479 E0.01451
G1 X18.008 Y36.233 E0.80908
G1 X18.116 Y36.875 E0.02041
G1 X36.176 Y54.935 E0.80085
G1 X36.099 Y55.392 E0.01451
G1 X18.225 Y37.517 E0.79262
G1 X18.333 Y38.159 E0.02041
G1 X36.022 Y55.848 E0.78439
G1 X35.945 Y56.304 E0.01451
G1 X18.442 Y38.800 E0.77616
G1 X18.550 Y39.442 E0.02041
G1 X35.868 Y56.760 E0.76793
G1 X35.791 Y57.216 E0.01451
G1 X18.659 Y40.084 E0.75970
G1 X18.767 Y40.726 E0.02041
G1 X35.714 Y57.673 E0.75147
G1 X35.637 Y58.129 E0.01451
G1 X18.876 Y41.368 E0.74324
G1 X18.984 Y42.009 E0.02041
G1 X35.560 Y58.585 E0.73501
G1 X35.483 Y59.041 E0.01451
G1 X19.093 Y42.651 E0.72678
G1 X19.201 Y43.293 E0.02041
G1 X35.405 Y59.497 E0.71855
G1 X35.328 Y59.953 E0.01451
G1 X19.310 Y43.935 E0.71032
G1 X19.418 Y44.576 E0.02041
G1 X35.251 Y60.410 E0.70209
G1 X35.174 Y60.866 E0.01451
G1 X19.527 Y45.218 E0.69386
G1 X19.635 Y45.860 E0.02041
G1 X35.097 Y61.322 E0.68564
G1 X35.020 Y61.778 E0.01451
G1 X19.744 Y46.502 E0.67741
G1 X19.852 Y47.144 E0.02041
G1 X34.943 Y62.234 E0.66918
G1 X34.866 Y62.691 E0.01451
G1 X19.961 Y47.785 E0.66095
G1 X20.069 Y48.427 E0.02041
G1 X34.789 Y63.147 E0.65272
G1 X34.712 Y63.603 E0.01451
G1 X20.177 Y49.069 E0.64449
G1 X20.286 Y49.711 E0.02041
G1 X34.307 Y63.732 E0.62175
G1 X33.774 Y63.732 E0.01672
G1 X20.394 Y50.352 E0.59330
G1 X20.503 Y50.994 E0.02041
G1 X33.241 Y63.732 E0.56484
G1 X32.708 Y63.732 E0.01672
G1 X20.611 Y51.636 E0.53638
G1 X20.720 Y52.278 E0.02041
G1 X32.174 Y63.732 E0.50792
G1 X31.641 Y63.732 E0.01672
G1 X20.828 Y52.920 E0.47946
G1 X20.937 Y53.561 E0.02041
G1 X31.108 Y63.732 E0.45100
G1 X30.574 Y63.732 E0.01672
G1 X21.045 Y54.203 E0.42254
G1 X21.154 Y54.845 E0.02041
G1 X30.041 Y63.732 E0.39409
G1 X29.508 Y63.732 E0.01672
G1 X21.262 Y55.487 E0.36563
G1 X21.371 Y56.129 E0.02041
G1 X28.975 Y63.732 E0.33717
G1 X28.441 Y63.732 E0.01672
G1 X21.479 Y56.770 E0.30871
G1 X21.588 Y57.412 E0.02041
G1 X27.908 Y63.732 E0.28025
G1 X27.375 Y63.732 E0.01672
G1 X21.696 Y58.054 E0.25179
G1 X21.805 Y58.696 E0.02041
G1 X26.841 Y63.732 E0.22333
G1 X26.308 Y63.732 E0.01672
G1 X21.913 Y59.337 E0.19488
G1 X22.022 Y59.979 E0.02041
G1 X25.775 Y63.732 E0.16642
G1 X25.242 Y63.732 E0.01672
G1 X22.130 Y60.621 E0.13796
G1 X22.239 Y61.263 E0.02041
G1 X24.708 Y63.732 E0.10950
G1 X24.175 Y63.732 E0.01672
G1 X22.347 Y61.905 E0.08104
G1 X22.456 Y62.546 E0.02041
G1 X23.642 Y63.732 E0.05258
G1 X23.108 Y63.732 E0.01672
G1 X22.357 Y62.981 E0.03331
G1 E-3.50000 F3600.000
;WIPE_START
G1 F7200.000
G1 X23.108 Y63.732 E-0.50459
G1 X23.642 Y63.732 E-0.25331
G1 X22.649 Y62.739 E-0.66710
;WIPE_END
G1 E-0.07500 F3600.000
G1 X61.815 Y63.967 F9000.000
G1 E5.00000 F2400.000
;TYPE:Perimeter
;WIDTH:0.42
G1 F1200.000
G1 X54.084 Y18.234 E1.45427
G1 X82.057 Y18.234 E0.87706
G1 X74.327 Y63.967 E1.45426
G1 X61.875 Y63.967 E0.39041
G1 X61.497 Y64.344 F9000.000
;TYPE:External perimeter
G1 F1200.000
G1 X53.638 Y17.857 E1.47825
G1 X82.504 Y17.857 E0.90506
G1 X74.645 Y64.344 E1.47825
G1 X61.557 Y64.344 E0.41039
G1 X61.509 Y63.944 F9000.000
G1 E-3.50000 F3600.000
;WIPE_START
G1 F7200.000
G1 X61.053 Y61.387 E-1.42500
;WIPE_END
G1 E-0.07500 F3600.000
G1 X81.813 Y18.996 F9000.000
G1 E5.00000 F2400.000
;TYPE:Solid infill
;WIDTH:0.420012
G1 F1200.000
G1 X81.334 Y18.517 E0.02124
G1 X80.800 Y18.517 E0.01672
G1 X81.588 Y19.305 E0.03494
G1 X81.511 Y19.761 E0.01451
G1 X80.267 Y18.517 E0.05517
G1 X79.734 Y18.517 E0.01672
G1 X81.434 Y20.217 E0.07540
G1 X81.357 Y20.673 E0.01451
G1 X79.201 Y18.517 E0.09562
G1 X78.667 Y18.517 E0.01672
G1 X81.280 Y21.130 E0.11585
G1 X81.203 Y21.586 E0.01451
G1 X78.134 Y18.517 E0.13608
G1 X77.601 Y18.517 E0.01672
G1 X81.126 Y22.042 E0.15631
G1 X81.049 Y22.498 E0.01451
G1 X77.067 Y18.517 E0.17654
G1 X76.534 Y18.517 E0.01672
G1 X80.971 Y22.954 E0.19677
G1 X80.894 Y23.411 E0.01451
G1 X76.001 Y18.517 E0.21700
G1 X75.468 Y18.517 E0.01672
G1 X80.817 Y23.867 E0.23723
G1 X80.740 Y24.323 E0.01451
G1 X74.934 Y18.517 E0.25745
G1 X74.401 Y18.517 E0.01672
G1 X80.663 Y24.779 E0.27768
G1 X80.586 Y25.235 E0.01451
G1 X73.868 Y18.517 E0.29791
G1 X73.334 Y18.517 E0.01672
G1 X80.509 Y25.691 E0.31814
G1 X80.432 Y26.148 E0.01451
G1 X72.801 Y18.517 E0.33837
G1 X72.268 Y18.517 E0.01672
G1 X80.355 Y26.604 E0.35860
G1 X80.278 Y27.060 E0.01451
G1 X71.734 Y18.517 E0.37883
G1 X71.201 Y18.517 E0.01672
G1 X80.200 Y27.516 E0.39906
G1 X80.123 Y27.972 E0.01451
G1 X70.668 Y18.517 E0.41929
G1 X70.135 Y18.517 E0.01672
G1 X80.046 Y28.429 E0.43951
G1 X79.969 Y28.885 E0.01451
G1 X69.601 Y18.517 E0.45974
G1 X69.068 Y18.517 E0.01672
G1 X79.892 Y29.341 E0.47997
G1 X79.815 Y29.797 E0.01451
G1 X68.535 Y18.517 E0.50020
G1 X68.001 Y18.517 E0.01672
G1 X79.738 Y30.253 E0.52043
G1 X79.661 Y30.710 E0.01451
G1 X67.468 Y18.517 E0.54066
G1 X66.935 Y18.517 E0.01672
G1 X79.584 Y31.166 E0.56089
G1 X79.507 Y31.622 E0.01451
G1 X66.402 Y18.517 E0.58112
G1 X65.868 Y18.517 E0.01672
G1 X79.429 Y32.078 E0.60135
G1 X79.352 Y32.534 E0.01451
G1 X65.335 Y18.517 E0.62157
G1 X64.802 Y18.517 E0.01672
G1 X79.275 Y32.991 E0.64180
G1 X79.198 Y33.447 E0.01451
G1 X64.268 Y18.517 E0.66203
G1 X63.735 Y18.517 E0.01672
G1 X79.121 Y33.903 E0.68226
G1 X79.044 Y34.359 E0.01451
G1 X63.202 Y18.517 E0.70249
G1 X62.669 Y18.517 E0.01672
G1 X78.967 Y34.815 E0.72272
G1 X78.890 Y35.271 E0.01451
G1 X62.135 Y18.517 E0.74295
G1 X61.602 Y18.517 E0.01672
G1 X78.813 Y35.728 E0.76318
G1 X78.736 Y36.184 E0.01451
G1 X61.069 Y18.517 E0.78340
G1 X60.535 Y18.517 E0.01672
G1 X78.658 Y36.640 E0.80363
G1 X78.581 Y37.096 E0.01451
G1 X60.002 Y18.517 E0.82386
G1 X59.469 Y18.517 E0.01672
G1 X78.504 Y37.552 E0.84409
G1 X78.427 Y38.009 E0.01451
G1 X58.936 Y18.517 E0.86432
G1 X58.402 Y18.517 E0.01672
G1 X78.350 Y38.465 E0.88455
G1 X78.273 Y38.921 E0.01451
G1 X57.869 Y18.517 E0.90478
G1 X57.336 Y18.517 E0.01672
G1 X78.196 Y39.377 E0.92501
G1 X78.119 Y39.833 E0.01451
G1 X56.802 Y18.517 E0.94524
G1 X56.269 Y18.517 E0.01672
G1 X78.042 Y40.290 E0.96546
G1 X77.965 Y40.746 E0.01451
G1 X55.736 Y18.517 E0.98569
G1 X55.203 Y18.517 E0.01672
G1 X77.888 Y41.202 E1.00592
G1 X77.810 Y41.658 E0.01451
G1 X54.669 Y18.517 E1.02615
G1 X54.419 Y18.517 E0.00785
G1 X54.476 Y18.857 E0.01083
G1 X77.733 Y42.114 E1.03128
G1 X77.656 Y42.570 E0.01451
G1 X54.585 Y19.499 E1.02305
G1 X54.693 Y20.141 E0.02041
G1 X77.579 Y43.027 E1.01482
G1 X77.502 Y43.483 E0.01451
G1 X54.802 Y20.783 E1.00659
G1 X54.910 Y21.425 E0.02041
G1 X77.425 Y43.939 E0.99836
G1 X77.348 Y44.395 E0.01451
G1 X55.019 Y22.066 E0.99013
G1 X55.127 Y22.708 E0.02041
G1 X77.271 Y44.851 E0.98191
G1 X77.194 Y45.308 E0.01451
G1 X55.236 Y23.350 E0.97368
G1 X55.344 Y23.992 E0.02041
G1 X77.117 Y45.764 E0.96545
G1 X77.039 Y46.220 E0.01451
G1 X55.453 Y24.633 E0.95722
G1 X55.561 Y25.275 E0.02041
G1 X76.962 Y46.676 E0.94899
G1 X76.885 Y47.132 E0.01451
G1 X55.670 Y25.917 E0.94076
G1 X55.778 Y26.559 E0.02041
G1 X76.808 Y47.589 E0.93253
G1 X76.731 Y48.045 E0.01451
G1 X55.887 Y27.201 E0.92430
G1 X55.995 Y27.842 E0.02041
G1 X76.654 Y48.501 E0.91607
G1 X76.577 Y48.957 E0.01451
G1 X56.104 Y28.484 E0.90784
G1 X56.212 Y29.126 E0.02041
G1 X76.500 Y49.413 E0.89961
G1 X76.423 Y49.870 E0.01451
G1 X56.321 Y29.768 E0.89138
G1 X56.429 Y30.409 E0.02041
G1 X76.346 Y50.326 E0.88315
G1 X76.268 Y50.782 E0.01451
G1 X56.538 Y31.051 E0.87492
G1 X56.646 Y31.693 E0.02041
G1 X76.191 Y51.238 E0.86669
G1 X76.114 Y51.694 E0.01451
G1 X56.755 Y32.335 E0.85846
G1 X56.863 Y32.977 E0.02041
G1 X76.037 Y52.150 E0.85023
G1 X75.960 Y52.607 E0.01451
G1 X56.972 Y33.618 E0.84200
G1 X57.080 Y34.260 E0.02041
G1 X75.883 Y53.063 E0.83377
G1 X75.806 Y53.519 E0.01451
G1 X57.189 Y34.902 E0.82554
G1 X57.297 Y35.544 E0.02041
G1 X75.729 Y53.975 E0.81731
G1 X75.652 Y54.431 E0.01451
G1 X57.406 Y36.185 E0.80908
G1 X57.514 Y36.827 E0.02041
G1 X75.575 Y54.888 E0.80085
G1 X75.497 Y55.344 E0.01451
G1 X57.623 Y37.469 E0.79262
G1 X57.731 Y38.111 E0.02041
G1 X75.420 Y55.800 E0.78439
G1 X75.343 Y56.256 E0.01451
G1 X57.840 Y38.753 E0.77616
G1 X57.948 Y39.394 E0.02041
G1 X75.266 Y56.712 E0.76793
G1 X75.189 Y57.169 E0.01451
G1 X58.057 Y40.036 E0.75970
G1 X58.165 Y40.678 E0.02041
G1 X75.112 Y57.625 E0.75147
G1 X75.035 Y58.081 E0.01451
G1 X58.274 Y41.320 E0.74324
G1 X58.382 Y41.962 E0.02041
G1 X74.958 Y58.537 E0.73501
G1 X74.881 Y58.993 E0.01451
G1 X58.491 Y42.603 E0.72678
G1 X58.599 Y43.245 E0.02041
G1 X74.804 Y59.449 E0.71855
G1 X74.726 Y59.906 E0.01451
G1 X58.708 Y43.887 E0.71032
G1 X58.816 Y44.529 E0.02041
G1 X74.649 Y60.362 E0.70209
