; generated by PrusaSlicer 2.3.3+x64 on 2022-06-23 at 06:41:40 UTC

; 

; external perimeters extrusion width = 0.45mm
; perimeters extrusion width = 0.45mm
; infill extrusion width = 0.45mm
; solid infill extrusion width = 0.45mm
; top infill extrusion width = 0.45mm
; first layer extrusion width = 0.42mm

M201 X500 Y500 Z100 E5000 ; sets maximum accelerations, mm/sec^2
M203 X500 Y500 Z10 E60 ; sets maximum feedrates, mm/sec
M204 P500 R1000 T500 ; sets acceleration (P, T) and retract acceleration (R), mm/sec^2
M205 X8.00 Y8.00 Z0.40 E5.00 ; sets the jerk limits, mm/sec
M205 S0 T0 ; sets the minimum extruding and travel feed rate, mm/sec
M107
;TYPE:Custom
G90 ; use absolute coordinates
M83 ; extruder relative mode
M140 S60 ; set final bed temp
M104 S150 ; set temporary nozzle temp to prevent oozing during homing
G4 S10 ; allow partial nozzle warmup
G28 ; home all axis
G1 Z50 F240
G1 X2 Y10 F3000
M104 S215 ; set final nozzle temp
M190 S60 ; wait for bed temp to stabilize
M109 S215 ; wait for nozzle temp to stabilize
G1 Z0.28 F240
G92 E0
G1 Y140 E10 F1500 ; prime the nozzle
G1 X2.3 F5000
G92 E0
G1 Y10 E10 F1200 ; prime the nozzle
G92 E0
G21 ; set units to millimeters
G90 ; use absolute coordinates
M83 ; use relative distances for extrusion
; Filament gcode
;LAYER_CHANGE
;Z:0.2
;HEIGHT:0.2
;BEFORE_LAYER_CHANGE
G92 E0
;0.2


G1 E-5.00000 F3600.000
G1 Z0.200 F9000.000
;AFTER_LAYER_CHANGE
;0.2
G1 X31.512 Y31.142
G1 E5.00000 F2400.000
M204 S500
;TYPE:Skirt
;WIDTH:0.42
G1 F1200.000
G1 X32.850 Y30.291 E0.04970
G1 X65.836 Y12.615 E1.17339
G1 X66.678 Y12.218 E0.02918
G1 X67.763 Y11.895 E0.03552
G1 X69.379 Y11.709 E0.05098
G1 X188.141 Y12.127 E3.72374
G1 X189.176 Y12.195 E0.03253
G1 X190.700 Y12.543 E0.04900
G1 X191.959 Y13.103 E0.04321
G1 X205.352 Y20.909 E0.48605
G1 X206.581 Y21.855 E0.04862
G1 X207.563 Y22.983 E0.04688
G1 X208.303 Y24.260 E0.04628
G1 X218.280 Y47.455 E0.79170
G1 X218.840 Y49.096 E0.05437
G1 X219.136 Y50.901 E0.05734
G1 X219.169 Y61.777 E0.34100
G1 X218.212 Y183.525 E3.81745
G1 X218.062 Y185.248 E0.05424
G1 X217.622 Y186.972 E0.05577
G1 X216.901 Y188.603 E0.05591
G1 X215.970 Y190.027 E0.05335
G1 X205.178 Y201.843 E0.50176
G1 X203.812 Y203.000 E0.05611
G1 X182.152 Y215.610 E0.78587
G1 X181.264 Y216.061 E0.03122
G1 X179.727 Y216.624 E0.05132
G1 X177.776 Y216.992 E0.06224
G1 X58.173 Y219.409 E3.75083
G1 X57.238 Y219.374 E0.02934
G1 X56.185 Y219.240 E0.03329
G1 X55.142 Y219.000 E0.03358
G1 X54.198 Y218.687 E0.03118
G1 X52.696 Y217.981 E0.05203
G1 X31.014 Y205.356 E0.78669
G1 X30.278 Y204.783 E0.02923
G1 X29.290 Y203.810 E0.04348
G1 X19.483 Y193.118 E0.45490
G1 X18.464 Y191.830 E0.05149
G1 X17.608 Y190.302 E0.05493
G1 X17.184 Y189.227 E0.03623
G1 X16.776 Y187.593 E0.05280
G1 X16.629 Y185.834 E0.05536
G1 X16.629 Y175.782 E0.31516
G1 X17.458 Y51.288 E3.90351
G1 X17.589 Y49.655 E0.05139
G1 X17.815 Y48.573 E0.03466
G1 X18.097 Y47.669 E0.02968
G1 X18.717 Y46.271 E0.04795
G1 X19.761 Y44.667 E0.06001
G1 X30.078 Y32.468 E0.50093
G1 X31.468 Y31.182 E0.05937
G1 E-3.50000 F3600.000
;WIPE_START
G1 F7200.000
G1 X32.850 Y30.291 E-0.78100
G1 X34.045 Y29.651 E-0.64400
;WIPE_END
G1 E-0.07500 F3600.000
G1 X183.221 Y53.921 F9000.000
G1 E5.00000 F2400.000
;TYPE:Perimeter
G1 F1200.000
G1 X183.703 Y52.439 E0.04888
G1 X184.964 Y51.522 E0.04888
G1 X186.523 Y51.522 E0.04888
G1 X187.785 Y52.439 E0.04888
G1 X188.266 Y53.921 E0.04888
G1 X187.785 Y55.404 E0.04888
G1 X186.523 Y56.320 E0.04888
G1 X184.964 Y56.320 E0.04888
G1 X183.703 Y55.404 E0.04888
G1 X183.240 Y53.979 E0.04700
G1 X183.618 Y53.921 F9000.000
;TYPE:External perimeter
G1 F1200.000
G1 X184.024 Y52.672 E0.04120
G1 X185.087 Y51.900 E0.04120
G1 X186.401 Y51.900 E0.04120
G1 X187.464 Y52.672 E0.04120
G1 X187.870 Y53.921 E0.04120
G1 X187.464 Y55.171 E0.04120
G1 X186.401 Y55.943 E0.04120
G1 X185.087 Y55.943 E0.04120
G1 X184.024 Y55.171 E0.04120
G1 X183.637 Y53.979 E0.03932
G1 X183.272 Y53.721 F9000.000
G1 E-3.50000 F3600.000
;WIPE_START
G1 F7200.000
G1 X184.024 Y52.672 E-0.64738
G1 X185.087 Y51.900 E-0.62411
G1 X185.410 Y51.900 E-0.15351
;WIPE_END
G1 E-0.07500 F3600.000
G1 X172.152 Y53.921 F9000.000
G1 E5.00000 F2400.000
;TYPE:Perimeter
G1 F1200.000
G1 X171.670 Y55.404 E0.04888
G1 X170.409 Y56.320 E0.04888
G1 X168.850 Y56.320 E0.04888
G1 X167.588 Y55.404 E0.04888
G1 X167.107 Y53.921 E0.04888
G1 X167.588 Y52.439 E0.04888
G1 X168.850 Y51.522 E0.04888
G1 X170.409 Y51.522 E0.04888
G1 X171.670 Y52.439 E0.04888
G1 X172.133 Y53.864 E0.04700
G1 X171.755 Y53.921 F9000.000
;TYPE:External perimeter
G1 F1200.000
G1 X171.349 Y55.171 E0.04120
G1 X170.286 Y55.943 E0.04120
G1 X168.972 Y55.943 E0.04120
G1 X167.909 Y55.171 E0.04120
G1 X167.503 Y53.921 E0.04120
G1 X167.909 Y52.672 E0.04120
G1 X168.972 Y51.900 E0.04120
G1 X170.286 Y51.900 E0.04120
G1 X171.349 Y52.672 E0.04120
G1 X171.737 Y53.864 E0.03932
G1 X172.101 Y54.121 F9000.000
G1 E-3.50000 F3600.000
;WIPE_START
G1 F7200.000
G1 X171.349 Y55.171 E-0.64738
G1 X170.286 Y55.943 E-0.62411
G1 X169.963 Y55.943 E-0.15351
;WIPE_END
G1 E-0.07500 F3600.000
G1 X160.256 Y68.491 F9000.000
G1 E5.00000 F2400.000
;TYPE:Perimeter
G1 F1200.000
G1 X160.737 Y69.974 E0.04888
G1 X160.256 Y71.456 E0.04888
G1 X158.995 Y72.373 E0.04888
G1 X157.436 Y72.373 E0.04888
G1 X156.174 Y71.456 E0.04888
G1 X155.693 Y69.974 E0.04888
G1 X156.174 Y68.491 E0.04888
G1 X157.436 Y67.575 E0.04888
G1 X158.995 Y67.575 E0.04888
G1 X160.207 Y68.456 E0.04700
G1 X159.935 Y68.724 F9000.000
;TYPE:External perimeter
G1 F1200.000
G1 X160.341 Y69.974 E0.04120
G1 X159.935 Y71.223 E0.04120
G1 X158.872 Y71.996 E0.04120
G1 X157.558 Y71.996 E0.04120
G1 X156.495 Y71.223 E0.04120
G1 X156.089 Y69.974 E0.04120
G1 X156.495 Y68.724 E0.04120
G1 X157.558 Y67.952 E0.04120
G1 X158.872 Y67.952 E0.04120
G1 X159.886 Y68.689 E0.03932
G1 X160.333 Y68.682 F9000.000
G1 E-3.50000 F3600.000
;WIPE_START
G1 F7200.000
G1 X160.341 Y69.974 E-0.64738
G1 X159.935 Y71.223 E-0.62411
G1 X159.674 Y71.413 E-0.15351
;WIPE_END
G1 E-0.07500 F3600.000
G1 X171.164 Y71.535 F9000.000
G1 E5.00000 F2400.000
;TYPE:Perimeter
G1 F1200.000
G1 X171.646 Y70.052 E0.04888
G1 X172.907 Y69.136 E0.04888
G1 X174.466 Y69.136 E0.04888
G1 X175.727 Y70.052 E0.04888
G1 X176.209 Y71.535 E0.04888
G1 X175.727 Y73.017 E0.04888
G1 X174.466 Y73.933 E0.04888
G1 X172.907 Y73.933 E0.04888
G1 X171.646 Y73.017 E0.04888
G1 X171.183 Y71.592 E0.04700
G1 X171.561 Y71.535 F9000.000
;TYPE:External perimeter
G1 F1200.000
G1 X171.967 Y70.285 E0.04120
G1 X173.030 Y69.513 E0.04120
G1 X174.343 Y69.513 E0.04120
G1 X175.406 Y70.285 E0.04120
G1 X175.812 Y71.535 E0.04120
G1 X175.406 Y72.784 E0.04120
G1 X174.343 Y73.556 E0.04120
G1 X173.030 Y73.556 E0.04120
G1 X171.967 Y72.784 E0.04120
G1 X171.579 Y71.592 E0.03932
G1 X171.214 Y71.335 F9000.000
G1 E-3.50000 F3600.000
;WIPE_START
G1 F7200.000
G1 X171.967 Y70.285 E-0.64738
G1 X173.030 Y69.513 E-0.62411
G1 X173.353 Y69.513 E-0.15351
;WIPE_END
G1 E-0.07500 F3600.000
G1 X179.164 Y71.535 F9000.000
G1 E5.00000 F2400.000
;TYPE:Perimeter
G1 F1200.000
G1 X179.646 Y70.052 E0.04888
G1 X180.907 Y69.136 E0.04888
G1 X182.466 Y69.136 E0.04888
G1 X183.727 Y70.052 E0.04888
G1 X184.209 Y71.535 E0.04888
G1 X183.727 Y73.017 E0.04888
G1 X182.466 Y73.933 E0.04888
G1 X180.907 Y73.933 E0.04888
G1 X179.646 Y73.017 E0.04888
G1 X179.183 Y71.592 E0.04700
G1 X179.561 Y71.535 F9000.000
;TYPE:External perimeter
G1 F1200.000
G1 X179.967 Y70.285 E0.04120
G1 X181.030 Y69.513 E0.04120
G1 X182.343 Y69.513 E0.04120
G1 X183.406 Y70.285 E0.04120
G1 X183.812 Y71.535 E0.04120
G1 X183.406 Y72.784 E0.04120
G1 X182.343 Y73.556 E0.04120
G1 X181.030 Y73.556 E0.04120
G1 X179.967 Y72.784 E0.04120
G1 X179.579 Y71.592 E0.03932
G1 X179.214 Y71.335 F9000.000
G1 E-3.50000 F3600.000
;WIPE_START
G1 F7200.000
G1 X179.967 Y70.285 E-0.64738
G1 X181.030 Y69.513 E-0.62411
G1 X181.353 Y69.513 E-0.15351
;WIPE_END
G1 E-0.07500 F3600.000
G1 X194.636 Y69.974 F9000.000
G1 E5.00000 F2400.000
;TYPE:Perimeter
G1 F1200.000
G1 X195.117 Y68.491 E0.04888
G1 X196.379 Y67.575 E0.04888
G1 X197.937 Y67.575 E0.04888
G1 X199.199 Y68.491 E0.04888
G1 X199.680 Y69.974 E0.04888
G1 X199.199 Y71.456 E0.04888
G1 X197.937 Y72.373 E0.04888
G1 X196.379 Y72.373 E0.04888
G1 X195.117 Y71.456 E0.04888
G1 X194.654 Y70.031 E0.04700
G1 X195.032 Y69.974 F9000.000
;TYPE:External perimeter
G1 F1200.000
G1 X195.438 Y68.724 E0.04120
G1 X196.501 Y67.952 E0.04120
G1 X197.815 Y67.952 E0.04120
G1 X198.878 Y68.724 E0.04120
G1 X199.284 Y69.974 E0.04120
G1 X198.878 Y71.223 E0.04120
G1 X197.815 Y71.996 E0.04120
G1 X196.501 Y71.996 E0.04120
G1 X195.438 Y71.223 E0.04120
G1 X195.051 Y70.031 E0.03932
G1 X194.686 Y69.774 F9000.000
G1 E-3.50000 F3600.000
;WIPE_START
G1 F7200.000
G1 X195.438 Y68.724 E-0.64738
G1 X196.501 Y67.952 E-0.62411
G1 X196.824 Y67.952 E-0.15351
;WIPE_END
G1 E-0.07500 F3600.000
G1 X178.466 Y38.292 F9000.000
G1 E5.00000 F2400.000
;TYPE:Perimeter
G1 F1200.000
G1 X176.907 Y38.292 E0.04888
G1 X175.646 Y37.376 E0.04888
G1 X175.564 Y37.123 E0.00834
G1 X175.164 Y35.893 E0.04054
G1 X175.646 Y34.411 E0.04888
G1 X176.907 Y33.494 E0.04888
G1 X178.466 Y33.494 E0.04888
G1 X179.727 Y34.411 E0.04888
G1 X180.209 Y35.893 E0.04888
G1 X179.727 Y37.376 E0.04888
G1 X178.515 Y38.257 E0.04700
G1 X178.343 Y37.915 F9000.000
;TYPE:External perimeter
G1 F1200.000
G1 X177.030 Y37.915 E0.04120
G1 X175.967 Y37.143 E0.04120
G1 X175.922 Y37.006 E0.00450
G1 X175.561 Y35.893 E0.03670
G1 X175.967 Y34.644 E0.04120
G1 X177.030 Y33.871 E0.04120
G1 X178.343 Y33.871 E0.04120
G1 X179.406 Y34.644 E0.04120
G1 X179.812 Y35.893 E0.04120
G1 X179.406 Y37.143 E0.04120
G1 X178.392 Y37.880 E0.03932
G1 X178.260 Y38.306 F9000.000
G1 E-3.50000 F3600.000
;WIPE_START
G1 F7200.000
G1 X177.030 Y37.915 E-0.64738
G1 X175.967 Y37.143 E-0.62411
G1 X175.922 Y37.006 E-0.06817
G1 X175.867 Y36.835 E-0.08534
;WIPE_END
G1 E-0.07500 F3600.000
G1 X191.896 Y27.882 F9000.000
G1 E5.00000 F2400.000
;TYPE:Perimeter
G1 F1200.000
G1 X192.584 Y28.279 E0.02490
G1 X199.542 Y24.246 E0.25217
G1 X200.042 Y24.015 E0.01728
G1 X200.693 Y23.849 E0.02106
G1 X201.363 Y23.805 E0.02105
G1 X202.030 Y23.885 E0.02105
G1 X202.671 Y24.085 E0.02107
G1 X203.266 Y24.400 E0.02111
G1 X203.795 Y24.818 E0.02115
G1 X204.240 Y25.328 E0.02120
G1 X204.586 Y25.910 E0.02125
G1 X204.822 Y26.547 E0.02129
G1 X204.939 Y27.219 E0.02139
G1 X204.935 Y41.943 E0.46166
G1 X212.028 Y46.114 E0.25801
G1 X212.485 Y46.432 E0.01746
G1 X212.912 Y46.787 E0.01740
G1 X213.308 Y47.176 E0.01742
G1 X213.671 Y47.598 E0.01743
G1 X213.997 Y48.049 E0.01745
G1 X214.284 Y48.526 E0.01746
G1 X214.531 Y49.026 E0.01748
G1 X214.735 Y49.545 E0.01749
G1 X214.896 Y50.080 E0.01750
G1 X215.011 Y50.626 E0.01751
G1 X215.081 Y51.180 E0.01751
G1 X215.105 Y51.753 E0.01796
G1 X215.105 Y61.740 E0.31313
G1 X215.081 Y62.312 E0.01796
G1 X215.011 Y62.866 E0.01751
G1 X214.896 Y63.413 E0.01751
G1 X214.735 Y63.947 E0.01750
G1 X214.531 Y64.466 E0.01749
G1 X214.284 Y64.966 E0.01748
G1 X213.997 Y65.443 E0.01746
G1 X213.671 Y65.894 E0.01745
G1 X213.308 Y66.316 E0.01743
G1 X212.912 Y66.706 E0.01742
G1 X212.485 Y67.060 E0.01740
G1 X212.028 Y67.379 E0.01746
G1 X204.936 Y71.549 E0.25798
G1 X204.933 Y73.382 E0.05746
G1 X204.892 Y73.875 E0.01552
G1 X204.812 Y74.362 E0.01547
G1 X204.690 Y74.840 E0.01547
G1 X204.530 Y75.306 E0.01546
G1 X204.331 Y75.757 E0.01545
G1 X204.096 Y76.190 E0.01544
G1 X203.825 Y76.600 E0.01542
G1 X203.522 Y76.987 E0.01541
G1 X203.187 Y77.346 E0.01540
G1 X202.823 Y77.675 E0.01538
G1 X202.434 Y77.973 E0.01537
G1 X202.009 Y78.244 E0.01581
G1 X181.176 Y90.336 E0.75526
G1 X180.625 Y90.624 E0.01949
G1 X180.065 Y90.857 E0.01901
G1 X179.488 Y91.040 E0.01900
G1 X178.897 Y91.172 E0.01899
G1 X178.296 Y91.252 E0.01898
G1 X177.692 Y91.278 E0.01898
G1 X177.087 Y91.252 E0.01898
G1 X176.487 Y91.172 E0.01898
G1 X175.896 Y91.040 E0.01899
G1 X175.318 Y90.857 E0.01900
G1 X174.758 Y90.624 E0.01901
G1 X174.208 Y90.336 E0.01949
G1 X153.374 Y78.244 E0.75526
G1 X152.949 Y77.973 E0.01581
G1 X152.560 Y77.675 E0.01537
G1 X152.197 Y77.346 E0.01538
G1 X151.862 Y76.987 E0.01540
G1 X151.558 Y76.600 E0.01541
G1 X151.288 Y76.190 E0.01542
G1 X151.052 Y75.757 E0.01544
G1 X150.853 Y75.306 E0.01545
G1 X150.693 Y74.840 E0.01546
G1 X150.572 Y74.362 E0.01547
G1 X150.491 Y73.875 E0.01547
G1 X150.451 Y73.382 E0.01552
G1 X150.448 Y71.549 E0.05746
G1 X143.355 Y67.379 E0.25798
G1 X142.898 Y67.060 E0.01746
G1 X142.471 Y66.706 E0.01740
G1 X142.075 Y66.316 E0.01742
G1 X141.713 Y65.894 E0.01743
G1 X141.387 Y65.443 E0.01745
G1 X141.099 Y64.966 E0.01746
G1 X140.853 Y64.466 E0.01748
G1 X140.648 Y63.947 E0.01749
G1 X140.488 Y63.413 E0.01750
G1 X140.372 Y62.866 E0.01751
G1 X140.303 Y62.312 E0.01751
G1 X140.279 Y61.740 E0.01796
G1 X140.279 Y51.753 E0.31313
G1 X140.303 Y51.180 E0.01796
G1 X140.372 Y50.626 E0.01751
G1 X140.488 Y50.080 E0.01751
G1 X140.648 Y49.545 E0.01750
G1 X140.853 Y49.026 E0.01749
G1 X141.099 Y48.526 E0.01748
G1 X141.387 Y48.049 E0.01746
G1 X141.713 Y47.598 E0.01745
G1 X142.075 Y47.176 E0.01743
G1 X142.471 Y46.787 E0.01742
G1 X142.898 Y46.432 E0.01740
G1 X143.355 Y46.114 E0.01746
G1 X150.448 Y41.943 E0.25800
G1 X150.448 Y39.393 E0.07995
G1 X150.473 Y38.855 E0.01687
G1 X150.543 Y38.338 E0.01638
G1 X150.658 Y37.840 E0.01602
G1 X150.824 Y37.332 E0.01674
G1 X151.031 Y36.854 E0.01634
G1 X151.280 Y36.396 E0.01634
G1 X151.570 Y35.964 E0.01633
G1 X151.898 Y35.560 E0.01631
G1 X152.261 Y35.187 E0.01629
G1 X152.655 Y34.850 E0.01628
G1 X153.079 Y34.551 E0.01626
G1 X153.546 Y34.282 E0.01690
G1 X186.450 Y16.648 E1.17051
G1 X186.865 Y16.443 E0.01449
G1 X187.492 Y16.262 E0.02046
G1 X188.140 Y16.194 E0.02044
G1 X188.790 Y16.242 E0.02044
G1 X189.422 Y16.404 E0.02045
G1 X190.016 Y16.675 E0.02048
G1 X190.555 Y17.048 E0.02052
G1 X191.020 Y17.510 E0.02057
G1 X191.398 Y18.048 E0.02062
G1 X191.677 Y18.644 E0.02066
G1 X191.848 Y19.282 E0.02069
G1 X191.896 Y19.821 E0.01698
G1 X191.896 Y27.822 E0.25087
G1 X192.273 Y27.664 F9000.000
;TYPE:External perimeter
G1 F1200.000
G1 X192.583 Y27.843 E0.01123
G1 X199.368 Y23.911 E0.24588
G1 X199.916 Y23.658 E0.01891
G1 X200.634 Y23.475 E0.02324
G1 X201.373 Y23.426 E0.02323
G1 X202.109 Y23.514 E0.02323
G1 X202.817 Y23.735 E0.02325
G1 X203.473 Y24.083 E0.02328
G1 X204.056 Y24.544 E0.02332
G1 X204.547 Y25.105 E0.02336
G1 X204.928 Y25.747 E0.02341
G1 X205.187 Y26.448 E0.02344
G1 X205.316 Y27.186 E0.02349
G1 X205.312 Y41.727 E0.45592
G1 X212.232 Y45.796 E0.25170
G1 X212.714 Y46.132 E0.01842
G1 X213.165 Y46.507 E0.01840
G1 X213.584 Y46.919 E0.01841
G1 X213.967 Y47.365 E0.01843
G1 X214.312 Y47.841 E0.01844
G1 X214.615 Y48.345 E0.01845
G1 X214.876 Y48.873 E0.01847
G1 X215.092 Y49.422 E0.01848
G1 X215.261 Y49.986 E0.01849
G1 X215.383 Y50.564 E0.01849
G1 X215.457 Y51.149 E0.01850
G1 X215.482 Y51.745 E0.01870
G1 X215.482 Y61.748 E0.31363
G1 X215.457 Y62.344 E0.01870
G1 X215.383 Y62.929 E0.01850
G1 X215.261 Y63.506 E0.01849
G1 X215.092 Y64.071 E0.01849
G1 X214.876 Y64.619 E0.01848
G1 X214.615 Y65.147 E0.01847
G1 X214.312 Y65.651 E0.01845
G1 X213.967 Y66.128 E0.01844
G1 X213.584 Y66.574 E0.01843
G1 X213.165 Y66.986 E0.01841
G1 X212.714 Y67.360 E0.01840
G1 X212.232 Y67.696 E0.01842
G1 X205.313 Y71.765 E0.25169
G1 X205.310 Y73.397 E0.05118
G1 X205.267 Y73.921 E0.01648
G1 X205.181 Y74.439 E0.01646
G1 X205.052 Y74.948 E0.01645
G1 X204.881 Y75.444 E0.01645
G1 X204.670 Y75.924 E0.01644
G1 X204.419 Y76.384 E0.01643
G1 X204.132 Y76.821 E0.01641
G1 X203.808 Y77.232 E0.01640
G1 X203.452 Y77.615 E0.01639
G1 X203.065 Y77.965 E0.01638
G1 X202.650 Y78.282 E0.01636
G1 X202.205 Y78.566 E0.01656
G1 X181.358 Y90.666 E0.75576
G1 X180.785 Y90.966 E0.02027
G1 X180.195 Y91.212 E0.02005
G1 X179.586 Y91.405 E0.02004
G1 X178.963 Y91.544 E0.02003
G1 X178.330 Y91.628 E0.02002
G1 X177.692 Y91.656 E0.02002
G1 X177.054 Y91.628 E0.02002
G1 X176.421 Y91.544 E0.02002
G1 X175.797 Y91.405 E0.02003
G1 X175.188 Y91.212 E0.02004
G1 X174.598 Y90.966 E0.02005
G1 X174.025 Y90.666 E0.02027
G1 X153.178 Y78.566 E0.75576
G1 X152.733 Y78.282 E0.01656
G1 X152.318 Y77.965 E0.01636
G1 X151.932 Y77.615 E0.01638
G1 X151.575 Y77.232 E0.01639
G1 X151.252 Y76.821 E0.01640
G1 X150.964 Y76.384 E0.01641
G1 X150.713 Y75.924 E0.01643
